svg/database_arrow_down.svg

<svg xmlns="http://www.w3.org/2000/svg" viewBox="0 0 24 24"><path d="M19 13c-2.17 0-4.07 1.16-5.12 2.89-.6.07-1.23.11-1.88.11-4.42 0-8-1.79-8-4V9c0 2.21 3.58 4 8 4s8-1.79 8-4v3c0 .36-.1.71-.28 1.05C19.5 13 19.24 13 19 13m-7-2c4.42 0 8-1.79 8-4s-3.58-4-8-4-8 1.79-8 4 3.58 4 8 4m1.1 6.96c-.36.04-.73.04-1.1.04-4.42 0-8-1.79-8-4v3c0 2.21 3.58 4 8 4 .46 0 .9 0 1.33-.06A6 6 0 0 1 13 19c0-.36.04-.7.1-1.04M20 20v-4h-2v4h-2l3 3 3-3z"/></svg>

<?xml version="1.0" encoding="UTF-8"?><!DOCTYPE svg PUBLIC "-//W3C//DTD SVG 1.1//EN" "http://www.w3.org/Graphics/SVG/1.1/DTD/svg11.dtd"><svg xmlns="http://www.w3.org/2000/svg" xmlns:xlink="http://www.w3.org/1999/xlink" version="1.1" id="mdi-database-arrow-down" width="24" height="24" viewBox="0 0 24 24"><path d="M19 13C16.83 13 14.93 14.16 13.88 15.89C13.28 15.96 12.65 16 12 16C7.58 16 4 14.21 4 12V9C4 11.21 7.58 13 12 13S20 11.21 20 9V12C20 12.36 19.9 12.71 19.72 13.05C19.5 13 19.24 13 19 13M12 11C16.42 11 20 9.21 20 7S16.42 3 12 3 4 4.79 4 7 7.58 11 12 11M13.1 17.96C12.74 18 12.37 18 12 18C7.58 18 4 16.21 4 14V17C4 19.21 7.58 21 12 21C12.46 21 12.9 21 13.33 20.94C13.12 20.33 13 19.68 13 19C13 18.64 13.04 18.3 13.1 17.96M20 20V16H18V20H16L19 23L22 20H20Z" /></svg>
